images/16757691.svg

<?xml version="1.0" encoding="UTF-8"?>
<svg xmlns="http://www.w3.org/2000/svg" xmlns:xlink="http://www.w3.org/1999/xlink" width="300pt" height="300pt" viewBox="0 0 300 300" version="1.1">
<defs>
<g>
<symbol overflow="visible" id="glyph0-0">
<path style="stroke:none;" d="M 0.453125 1.59375 L 0.453125 -6.34375 L 4.953125 -6.34375 L 4.953125 1.59375 Z M 0.953125 1.09375 L 4.453125 1.09375 L 4.453125 -5.84375 L 0.953125 -5.84375 Z M 0.953125 1.09375 "/>
</symbol>
<symbol overflow="visible" id="glyph0-1">
<path style="stroke:none;" d="M 3.546875 -5.953125 C 2.898438 -5.953125 2.382812 -5.710938 2 -5.234375 C 1.625 -4.753906 1.4375 -4.101562 1.4375 -3.28125 C 1.4375 -2.445312 1.625 -1.789062 2 -1.3125 C 2.382812 -0.832031 2.898438 -0.59375 3.546875 -0.59375 C 4.191406 -0.59375 4.703125 -0.832031 5.078125 -1.3125 C 5.453125 -1.789062 5.640625 -2.445312 5.640625 -3.28125 C 5.640625 -4.101562 5.453125 -4.753906 5.078125 -5.234375 C 4.703125 -5.710938 4.191406 -5.953125 3.546875 -5.953125 Z M 3.546875 -6.6875 C 4.460938 -6.6875 5.195312 -6.375 5.75 -5.75 C 6.300781 -5.132812 6.578125 -4.3125 6.578125 -3.28125 C 6.578125 -2.238281 6.300781 -1.410156 5.75 -0.796875 C 5.195312 -0.179688 4.460938 0.125 3.546875 0.125 C 2.617188 0.125 1.878906 -0.179688 1.328125 -0.796875 C 0.773438 -1.410156 0.5 -2.238281 0.5 -3.28125 C 0.5 -4.3125 0.773438 -5.132812 1.328125 -5.75 C 1.878906 -6.375 2.617188 -6.6875 3.546875 -6.6875 Z M 3.546875 -6.6875 "/>
</symbol>
</g>
</defs>
<g id="surface50493">
<rect x="0" y="0" width="300" height="300" style="fill:rgb(100%,100%,100%);fill-opacity:1;stroke:none;"/>
<path style="fill:none;stroke-width:1.2;stroke-linecap:butt;stroke-linejoin:miter;stroke:rgb(0%,0%,0%);stroke-opacity:1;stroke-miterlimit:10;" d="M 35.25 98.335938 L 44.515625 116.507812 "/>
<path style="fill:none;stroke-width:1.2;stroke-linecap:butt;stroke-linejoin:miter;stroke:rgb(0%,0%,0%);stroke-opacity:1;stroke-miterlimit:10;" d="M 44.515625 116.507812 L 64.882812 117.570312 "/>
<path style="fill:none;stroke-width:1.2;stroke-linecap:butt;stroke-linejoin:miter;stroke:rgb(0%,0%,0%);stroke-opacity:1;stroke-miterlimit:10;" d="M 64.882812 117.570312 L 74.148438 135.738281 "/>
<path style="fill:none;stroke-width:1.2;stroke-linecap:butt;stroke-linejoin:miter;stroke:rgb(0%,0%,0%);stroke-opacity:1;stroke-miterlimit:10;" d="M 74.148438 135.738281 L 94.515625 136.800781 "/>
<path style="fill:none;stroke-width:1.2;stroke-linecap:butt;stroke-linejoin:miter;stroke:rgb(0%,0%,0%);stroke-opacity:1;stroke-miterlimit:10;" d="M 94.515625 136.800781 L 103.78125 154.972656 "/>
<path style="fill:none;stroke-width:1.2;stroke-linecap:butt;stroke-linejoin:miter;stroke:rgb(0%,0%,0%);stroke-opacity:1;stroke-miterlimit:10;" d="M 101.941406 153.429688 L 97.640625 158.554688 "/>
<path style="fill:none;stroke-width:1.2;stroke-linecap:butt;stroke-linejoin:miter;stroke:rgb(100%,0%,0%);stroke-opacity:1;stroke-miterlimit:10;" d="M 97.640625 158.554688 L 93.34375 163.683594 "/>
<path style="fill:none;stroke-width:1.2;stroke-linecap:butt;stroke-linejoin:miter;stroke:rgb(0%,0%,0%);stroke-opacity:1;stroke-miterlimit:10;" d="M 105.617188 156.511719 L 101.320312 161.640625 "/>
<path style="fill:none;stroke-width:1.2;stroke-linecap:butt;stroke-linejoin:miter;stroke:rgb(100%,0%,0%);stroke-opacity:1;stroke-miterlimit:10;" d="M 101.320312 161.640625 L 97.019531 166.765625 "/>
<path style="fill:none;stroke-width:1.2;stroke-linecap:butt;stroke-linejoin:miter;stroke:rgb(0%,0%,0%);stroke-opacity:1;stroke-miterlimit:10;" d="M 103.78125 154.972656 L 113.964844 155.503906 "/>
<path style="fill:none;stroke-width:1.2;stroke-linecap:butt;stroke-linejoin:miter;stroke:rgb(100%,0%,0%);stroke-opacity:1;stroke-miterlimit:10;" d="M 113.964844 155.503906 L 124.148438 156.03125 "/>
<path style=" stroke:none;fill-rule:nonzero;fill:rgb(100%,100%,100%);fill-opacity:1;" d="M 87.179688 159.722656 L 95.179688 159.722656 L 95.179688 170.722656 L 87.179688 170.722656 Z M 87.179688 159.722656 "/>
<g style="fill:rgb(100%,0%,0%);fill-opacity:1;">
  <use xlink:href="#glyph0-1" x="87.179688" y="168.385742"/>
</g>
<path style="fill:none;stroke-width:1;stroke-linecap:butt;stroke-linejoin:miter;stroke:rgb(0%,0%,0%);stroke-opacity:1;stroke-miterlimit:10;" d="M 133.414062 174.203125 L 133.414062 174.203125 M 132.535156 171.335938 L 131.605469 171.808594 M 131.65625 168.464844 L 129.800781 169.414062 M 130.78125 165.597656 L 127.992188 167.019531 M 129.902344 162.726562 L 126.1875 164.621094 M 129.023438 159.859375 L 124.378906 162.226562 M 128.148438 156.992188 L 122.574219 159.832031 M 127.355469 154.398438 L 120.941406 157.667969 "/>
<path style=" stroke:none;fill-rule:nonzero;fill:rgb(100%,100%,100%);fill-opacity:1;" d="M 120.148438 150.53125 L 128.148438 150.53125 L 128.148438 161.53125 L 120.148438 161.53125 Z M 120.148438 150.53125 "/>
<g style="fill:rgb(100%,0%,0%);fill-opacity:1;">
  <use xlink:href="#glyph0-1" x="120.148438" y="159.194336"/>
</g>
<path style="fill:none;stroke-width:1.2;stroke-linecap:butt;stroke-linejoin:miter;stroke:rgb(0%,0%,0%);stroke-opacity:1;stroke-miterlimit:10;" d="M 133.414062 174.203125 L 138.695312 193.902344 "/>
<path style="fill:none;stroke-width:1.2;stroke-linecap:butt;stroke-linejoin:miter;stroke:rgb(0%,0%,0%);stroke-opacity:1;stroke-miterlimit:10;" d="M 133.414062 174.203125 L 114.375 181.519531 "/>
<path style="fill:none;stroke-width:1.2;stroke-linecap:butt;stroke-linejoin:miter;stroke:rgb(0%,0%,0%);stroke-opacity:1;stroke-miterlimit:10;" d="M 150.515625 163.089844 L 133.414062 174.203125 "/>
<path style="fill:none;stroke-width:1.2;stroke-linecap:butt;stroke-linejoin:miter;stroke:rgb(0%,0%,0%);stroke-opacity:1;stroke-miterlimit:10;" d="M 138.695312 193.902344 L 159.066406 194.964844 "/>
<path style="fill:none;stroke-width:1.2;stroke-linecap:butt;stroke-linejoin:miter;stroke:rgb(0%,0%,0%);stroke-opacity:1;stroke-miterlimit:10;" d="M 159.066406 194.964844 L 166.371094 175.921875 "/>
<path style="fill:none;stroke-width:1.2;stroke-linecap:butt;stroke-linejoin:miter;stroke:rgb(0%,0%,0%);stroke-opacity:1;stroke-miterlimit:10;" d="M 166.371094 175.921875 L 150.515625 163.089844 "/>
<path style="fill:none;stroke-width:1.2;stroke-linecap:butt;stroke-linejoin:miter;stroke:rgb(0%,0%,0%);stroke-opacity:1;stroke-miterlimit:10;" d="M 185.410156 168.605469 L 166.371094 175.921875 "/>
<path style="fill:none;stroke-width:1.2;stroke-linecap:butt;stroke-linejoin:miter;stroke:rgb(0%,0%,0%);stroke-opacity:1;stroke-miterlimit:10;" d="M 150.515625 163.089844 L 153.699219 142.945312 "/>
<path style=" stroke:none;fill-rule:nonzero;fill:rgb(0%,0%,0%);fill-opacity:1;" d="M 150.515625 163.089844 L 139.234375 145.722656 L 133.96875 150.632812 Z M 150.515625 163.089844 "/>
<path style="fill:none;stroke-width:1.2;stroke-linecap:butt;stroke-linejoin:miter;stroke:rgb(0%,0%,0%);stroke-opacity:1;stroke-miterlimit:10;" d="M 153.699219 142.945312 L 172.738281 135.628906 "/>
<path style="fill:none;stroke-width:1.2;stroke-linecap:butt;stroke-linejoin:miter;stroke:rgb(0%,0%,0%);stroke-opacity:1;stroke-miterlimit:10;" d="M 172.738281 135.628906 L 188.59375 148.460938 "/>
<path style="fill:none;stroke-width:1.2;stroke-linecap:butt;stroke-linejoin:miter;stroke:rgb(0%,0%,0%);stroke-opacity:1;stroke-miterlimit:10;" d="M 188.59375 148.460938 L 185.410156 168.605469 "/>
<path style="fill:none;stroke-width:1.2;stroke-linecap:butt;stroke-linejoin:miter;stroke:rgb(0%,0%,0%);stroke-opacity:1;stroke-miterlimit:10;" d="M 207.632812 141.144531 L 188.59375 148.460938 "/>
<path style="fill:none;stroke-width:1.2;stroke-linecap:butt;stroke-linejoin:miter;stroke:rgb(0%,0%,0%);stroke-opacity:1;stroke-miterlimit:10;" d="M 185.410156 168.605469 L 201.261719 181.4375 "/>
<path style="fill:none;stroke-width:1.2;stroke-linecap:butt;stroke-linejoin:miter;stroke:rgb(0%,0%,0%);stroke-opacity:1;stroke-miterlimit:10;" d="M 201.261719 181.4375 L 220.300781 174.125 "/>
<path style="fill:none;stroke-width:1.2;stroke-linecap:butt;stroke-linejoin:miter;stroke:rgb(0%,0%,0%);stroke-opacity:1;stroke-miterlimit:10;" d="M 220.300781 174.125 L 223.488281 153.976562 "/>
<path style="fill:none;stroke-width:1.2;stroke-linecap:butt;stroke-linejoin:miter;stroke:rgb(0%,0%,0%);stroke-opacity:1;stroke-miterlimit:10;" d="M 223.488281 153.976562 L 242.527344 146.664062 "/>
<path style="fill:none;stroke-width:1.2;stroke-linecap:butt;stroke-linejoin:miter;stroke:rgb(0%,0%,0%);stroke-opacity:1;stroke-miterlimit:10;" d="M 223.667969 148.765625 L 238.902344 142.914062 "/>
<path style="fill:none;stroke-width:1.2;stroke-linecap:butt;stroke-linejoin:miter;stroke:rgb(0%,0%,0%);stroke-opacity:1;stroke-miterlimit:10;" d="M 207.632812 141.144531 L 223.488281 153.976562 "/>
<path style="fill:none;stroke-width:1.2;stroke-linecap:butt;stroke-linejoin:miter;stroke:rgb(0%,0%,0%);stroke-opacity:1;stroke-miterlimit:10;" d="M 242.527344 146.664062 L 245.710938 126.515625 "/>
<path style="fill:none;stroke-width:1.2;stroke-linecap:butt;stroke-linejoin:miter;stroke:rgb(0%,0%,0%);stroke-opacity:1;stroke-miterlimit:10;" d="M 246.570312 128.757812 L 256.089844 125.101562 "/>
<path style="fill:none;stroke-width:1.2;stroke-linecap:butt;stroke-linejoin:miter;stroke:rgb(100%,0%,0%);stroke-opacity:1;stroke-miterlimit:10;" d="M 256.089844 125.101562 L 265.609375 121.441406 "/>
<path style="fill:none;stroke-width:1.2;stroke-linecap:butt;stroke-linejoin:miter;stroke:rgb(0%,0%,0%);stroke-opacity:1;stroke-miterlimit:10;" d="M 244.851562 124.277344 L 254.371094 120.621094 "/>
<path style="fill:none;stroke-width:1.2;stroke-linecap:butt;stroke-linejoin:miter;stroke:rgb(100%,0%,0%);stroke-opacity:1;stroke-miterlimit:10;" d="M 254.371094 120.621094 L 263.890625 116.964844 "/>
<path style="fill:none;stroke-width:1.2;stroke-linecap:butt;stroke-linejoin:miter;stroke:rgb(0%,0%,0%);stroke-opacity:1;stroke-miterlimit:10;" d="M 245.710938 126.515625 L 229.855469 113.6875 "/>
<path style=" stroke:none;fill-rule:nonzero;fill:rgb(100%,100%,100%);fill-opacity:1;" d="M 260.75 113.703125 L 268.75 113.703125 L 268.75 124.703125 L 260.75 124.703125 Z M 260.75 113.703125 "/>
<g style="fill:rgb(100%,0%,0%);fill-opacity:1;">
  <use xlink:href="#glyph0-1" x="260.75" y="122.366211"/>
</g>
<path style="fill:none;stroke-width:1.2;stroke-linecap:butt;stroke-linejoin:miter;stroke:rgb(0%,0%,0%);stroke-opacity:1;stroke-miterlimit:10;" d="M 229.855469 113.6875 L 210.816406 121 "/>
<path style="fill:none;stroke-width:1.2;stroke-linecap:butt;stroke-linejoin:miter;stroke:rgb(0%,0%,0%);stroke-opacity:1;stroke-miterlimit:10;" d="M 210.816406 121 L 207.632812 141.144531 "/>
<path style=" stroke:none;fill-rule:nonzero;fill:rgb(0%,0%,0%);fill-opacity:1;" d="M 207.632812 141.144531 L 194.042969 125.515625 L 189.515625 131.113281 Z M 207.632812 141.144531 "/>
<path style="fill:none;stroke-width:1.2;stroke-linecap:butt;stroke-linejoin:miter;stroke:rgb(0%,0%,0%);stroke-opacity:1;stroke-miterlimit:10;" d="M 112.003906 181.144531 L 110.410156 191.214844 "/>
<path style="fill:none;stroke-width:1.2;stroke-linecap:butt;stroke-linejoin:miter;stroke:rgb(100%,0%,0%);stroke-opacity:1;stroke-miterlimit:10;" d="M 110.410156 191.214844 L 108.820312 201.289062 "/>
<path style="fill:none;stroke-width:1.2;stroke-linecap:butt;stroke-linejoin:miter;stroke:rgb(0%,0%,0%);stroke-opacity:1;stroke-miterlimit:10;" d="M 116.742188 181.890625 L 115.152344 191.964844 "/>
<path style="fill:none;stroke-width:1.2;stroke-linecap:butt;stroke-linejoin:miter;stroke:rgb(100%,0%,0%);stroke-opacity:1;stroke-miterlimit:10;" d="M 115.152344 191.964844 L 113.558594 202.039062 "/>
<path style="fill:none;stroke-width:1.2;stroke-linecap:butt;stroke-linejoin:miter;stroke:rgb(0%,0%,0%);stroke-opacity:1;stroke-miterlimit:10;" d="M 114.375 181.519531 L 103.023438 174.429688 "/>
<path style=" stroke:none;fill-rule:nonzero;fill:rgb(100%,100%,100%);fill-opacity:1;" d="M 107.1875 196.164062 L 115.1875 196.164062 L 115.1875 207.164062 L 107.1875 207.164062 Z M 107.1875 196.164062 "/>
<g style="fill:rgb(100%,0%,0%);fill-opacity:1;">
  <use xlink:href="#glyph0-1" x="107.1875" y="204.827148"/>
</g>
</g>
</svg>

<svg xmlns="http://www.w3.org/2000/svg" xmlns:xlink="http://www.w3.org/1999/xlink" width="300pt" height="300pt" viewBox="0 0 300 300"><defs><symbol overflow="visible"><path d="M.453 1.594v-7.938h4.5v7.938zm.5-.5h3.5v-6.938h-3.5zm0 0"/></symbol><symbol overflow="visible" id="a"><path d="M3.547-5.953c-.65 0-1.164.242-1.547.72-.375.48-.563 1.13-.563 1.952 0 .835.188 1.49.563 1.967.383.48.898.72 1.547.72.644 0 1.156-.24 1.53-.72.376-.476.564-1.132.564-1.968 0-.822-.187-1.474-.562-1.954-.375-.477-.887-.72-1.53-.72zm0-.734c.914 0 1.648.312 2.203.937.55.617.828 1.438.828 2.47 0 1.042-.277 1.87-.828 2.483-.555.617-1.29.922-2.203.922-.93 0-1.668-.305-2.22-.922C.774-1.41.5-2.237.5-3.28c0-1.033.273-1.853.828-2.47.55-.625 1.29-.938 2.22-.938zm0 0"/></symbol></defs><g><path fill="#fff" d="M0 0h300v300H0z"/><path d="M35.25 98.336l9.266 18.172M44.516 116.508l20.367 1.062M64.883 117.57l9.265 18.168M74.148 135.738l20.368 1.063M94.516 136.8l9.265 18.173M101.94 153.43l-4.3 5.125" stroke-width="1.2" stroke="#000" stroke-miterlimit="10" fill="none"/><path d="M97.64 158.555l-4.296 5.13" stroke-width="1.2" stroke="#f00" stroke-miterlimit="10" fill="none"/><path d="M105.617 156.512l-4.297 5.13" stroke-width="1.2" stroke="#000" stroke-miterlimit="10" fill="none"/><path d="M101.32 161.64l-4.3 5.126" stroke-width="1.2" stroke="#f00" stroke-miterlimit="10" fill="none"/><path d="M103.78 154.973l10.185.53" stroke-width="1.2" stroke="#000" stroke-miterlimit="10" fill="none"/><path d="M113.965 155.504l10.183.527" stroke-width="1.2" stroke="#f00" stroke-miterlimit="10" fill="none"/><path d="M87.18 159.723h8v11h-8zm0 0" fill="#fff"/><use xlink:href="#a" x="87.18" y="168.386" fill="#f00"/><path d="M133.414 174.203m-.88-2.867l-.93.473m.052-3.345l-1.855.95m.98-3.817l-2.788 1.422m1.91-4.293l-3.714 1.894m2.835-4.76l-4.644 2.367m3.768-5.235l-5.574 2.84m4.78-5.434l-6.413 3.27" stroke="#000" stroke-miterlimit="10" fill="none"/><path d="M120.148 150.53h8v11h-8zm0 0" fill="#fff"/><use xlink:href="#a" x="120.148" y="159.194" fill="#f00"/><path d="M133.414 174.203l5.28 19.7M133.414 174.203l-19.04 7.317M150.516 163.09l-17.102 11.113M138.695 193.902l20.37 1.063M159.066 194.965l7.305-19.043M166.37 175.922l-15.854-12.832M185.41 168.605l-19.04 7.317M150.516 163.09l3.183-20.145" stroke-width="1.2" stroke="#000" stroke-miterlimit="10" fill="none"/><path d="M150.516 163.09l-11.282-17.367-5.265 4.91zm0 0"/><path d="M153.7 142.945l19.038-7.316M172.738 135.63l15.856 12.83M188.594 148.46l-3.184 20.145M207.633 141.145l-19.04 7.316M185.41 168.605l15.852 12.833M201.262 181.438l19.04-7.313M220.3 174.125l3.188-20.148M223.488 153.977l19.04-7.313M223.668 148.766l15.234-5.852M207.633 141.145l15.855 12.832M242.527 146.664l3.184-20.148M246.57 128.758l9.52-3.656" stroke-width="1.2" stroke="#000" stroke-miterlimit="10" fill="none"/><path d="M256.09 125.102l9.52-3.66" stroke-width="1.2" stroke="#f00" stroke-miterlimit="10" fill="none"/><path d="M244.852 124.277l9.52-3.656" stroke-width="1.2" stroke="#000" stroke-miterlimit="10" fill="none"/><path d="M254.37 120.62l9.52-3.655" stroke-width="1.2" stroke="#f00" stroke-miterlimit="10" fill="none"/><path d="M245.71 126.516l-15.855-12.83" stroke-width="1.2" stroke="#000" stroke-miterlimit="10" fill="none"/><path d="M260.75 113.703h8v11h-8zm0 0" fill="#fff"/><use xlink:href="#a" x="260.75" y="122.366" fill="#f00"/><path d="M229.855 113.688L210.815 121M210.816 121l-3.183 20.145" stroke-width="1.2" stroke="#000" stroke-miterlimit="10" fill="none"/><path d="M207.633 141.145l-13.59-15.63-4.527 5.598zm0 0"/><path d="M112.004 181.145l-1.594 10.07" stroke-width="1.2" stroke="#000" stroke-miterlimit="10" fill="none"/><path d="M110.41 191.215l-1.59 10.074" stroke-width="1.2" stroke="#f00" stroke-miterlimit="10" fill="none"/><path d="M116.742 181.89l-1.59 10.075" stroke-width="1.2" stroke="#000" stroke-miterlimit="10" fill="none"/><path d="M115.152 191.965l-1.593 10.074" stroke-width="1.2" stroke="#f00" stroke-miterlimit="10" fill="none"/><path d="M114.375 181.52l-11.352-7.09" stroke-width="1.2" stroke="#000" stroke-miterlimit="10" fill="none"/><path d="M107.188 196.164h8v11h-8zm0 0" fill="#fff"/><use xlink:href="#a" x="107.188" y="204.827" fill="#f00"/></g></svg>
